static/assets/images/icons/user.svg

<svg width="256" height="256" viewBox="0 0 256 256" fill="none" xmlns="http://www.w3.org/2000/svg">
<path d="M176.688 76.6902C176.688 103.581 154.889 125.38 127.998 125.38C101.107 125.38 79.308 103.581 79.308 76.6902C79.308 49.7994 101.107 28 127.998 28C154.889 28 176.688 49.7994 176.688 76.6902Z" fill="black"/>
<path fill-rule="evenodd" clip-rule="evenodd" d="M176.165 121.654C163.948 138.041 147.367 143.162 126.428 143.181C106.046 143.2 91.1504 137.31 78.8831 121.654C78.8831 121.654 62.0031 121.654 45.5937 137.946C28.6274 154.79 28 176.757 28 196.583C28 198.375 28.053 200.154 28.1577 201.921C28.2263 203.078 28.3759 204.491 28.5644 205.974C29.3607 212.24 34.1701 217.144 40.3723 218.337C57.8721 221.703 92.6101 227.86 126.428 227.996C163.11 228.144 202.446 223.695 219.763 217.415C223.981 215.885 226.776 212.022 227.324 207.568C227.482 206.285 227.613 204.993 227.716 203.695C227.902 201.347 227.996 198.976 227.996 196.583C227.996 176.757 227.135 155.023 210.403 137.946C194.44 121.654 176.165 121.654 176.165 121.654Z" fill="black"/>
</svg>

<svg xmlns="http://www.w3.org/2000/svg" viewBox="0 0 256 256"><path d="M176.688 76.69c0 26.891-21.799 48.69-48.69 48.69s-48.69-21.799-48.69-48.69S101.107 28 127.998 28s48.69 21.8 48.69 48.69"/><path fill-rule="evenodd" d="M176.165 121.654c-12.217 16.387-28.798 21.508-49.737 21.527-20.382.019-35.278-5.871-47.545-21.527 0 0-16.88 0-33.29 16.292C28.628 154.79 28 176.757 28 196.583q0 2.688.158 5.338c.068 1.157.218 2.57.406 4.053.797 6.266 5.606 11.17 11.808 12.363 17.5 3.366 52.238 9.523 86.056 9.659 36.682.148 76.018-4.301 93.335-10.581 4.218-1.53 7.013-5.393 7.561-9.847a90 90 0 0 0 .672-10.985c0-19.826-.861-41.56-17.593-58.637-15.963-16.292-34.238-16.292-34.238-16.292" clip-rule="evenodd"/></svg>
